www/images/add 2.svg

<svg fill="none" height="75" viewBox="0 0 75 75" width="75" xmlns="http://www.w3.org/2000/svg"><path d="m32.4406 64.4149c0 1.1045.8954 2 2 2h7.1189c1.1045 0 2-.8955 2-2v-20.8555h20.8554c1.1046 0 2-.8954 2-2v-7.1188c0-1.1046-.8954-2-2-2h-20.8554v-20.8555c0-1.1045-.8955-1.99997-2-1.99997h-7.1189c-1.1046 0-2 .89547-2 1.99997v20.8555h-20.8555c-1.1045 0-1.99996.8954-1.99996 2v7.1188c0 1.1046.89546 2 1.99996 2h20.8555z" fill="#fff"/></svg>

<svg width="75" height="75" viewBox="0 0 75 75" fill="none" xmlns="http://www.w3.org/2000/svg">
<path d="M32.4406 64.4149C32.4406 65.5194 33.336 66.4149 34.4406 66.4149L41.5595 66.4149C42.664 66.4149 43.5595 65.5194 43.5595 64.4149V43.5594H64.4149C65.5195 43.5594 66.4149 42.664 66.4149 41.5594V34.4406C66.4149 33.336 65.5195 32.4406 64.4149 32.4406H43.5595V11.5851C43.5595 10.4806 42.664 9.58513 41.5595 9.58513L34.4406 9.58513C33.336 9.58513 32.4406 10.4806 32.4406 11.5851V32.4406H11.5851C10.4806 32.4406 9.58514 33.336 9.58514 34.4406L9.58514 41.5594C9.58514 42.664 10.4806 43.5594 11.5851 43.5594H32.4406L32.4406 64.4149Z" fill="white"/>
</svg>
